X:1
T:Standin In The Need of Prayer
T:My ship is on the ocean
T:Copyright 1881 by The Riverside Press
T:Rodeheaver's Plantation Melodies
T:Rodeheaver's Plantation Melodies
Z:Rodeheaver's Plantation Melodies
%%score [ 1 2 3 4 ]
L:1/8
Q:1/4=70
M:4/4
K:G
V:1 treble nm="Soprano" snm="S."
V:2 treble nm="Alto" snm="A."
V:3 bass nm="Tenor" snm="T."
V:4 bass nm="Bass" snm="B."
V:1
 G2 | EE E>E GG G2 | EE E>E GG G2 | EE E>E GG G2 | B<B A>A G3 || D | G2 GG B3 G | B>B AG E D2 D | %8
 G2 GG B3 G | B2 A2 G2!D.C.! |] %10
V:2
 G2 | EE E>E GG G2 | EE E>E GG G2 | EE E>E GG G2 | G<G F>F G3 || D | G2 GG B3 G | B>B AG E D2 D | %8
w: My|ship is on the o- cean. My|ship is on the o- cean. My|ship is on the- * cean. Poor|sin- ner, fare you well.|I'm|go- ing a- way to|see the good old Dan- iel. I'm|
 G2 GG B3 G | G2 F2 G2 |] %10
w: go- ing a- way to|see my Lord.|
V:3
 B,2 | CC C>C CC C2 | B,B, B,>B, B,B, B,2 | CC C>C CC E2 | D<D C>C B,3 || B, | B,2 B,B, D3 B, | %7
 D>D CB, C B,2 B, | B,2 B,B, D3 B, | D2 C2 B,2 |] %10
V:4
 G,2 | C,C, C,>C, C,C, C,2 | G,G, G,>G, G,G, G,2 | C,C, C,>C, C,C, C,2 | D,<D, D,>D, G,3 || G, | %6
 G,2 G,G, G,3 G, | G,>G, G,G, G, G,2 G, | G,2 G,G, G,3 G, | D,2 D,2 G,,2 |] %10

